X:1878
T:Bourre - Le bord de l'ile
C:Trad 1, 25
M:3/8
L:1/16
K:C
c2d2cd|e2c2c2|d2cdcB|A4B2|\
c2d2cd|e2c2c2|d2cBAB|c6:|
|:e2dege|d2e2f2|d2cBcd|e4c2|\
e2dege|d2e2f2|d2c2B2|c6:|
